icons/op-watching-24.svg

<svg width="24" height="24" viewBox="0 0 24 24" fill="none" xmlns="http://www.w3.org/2000/svg">
<path d="M12 7C6.7512 7 4 11.3143 4 12C4 12.6839 6.7512 17 12 17C17.248 17 20 12.6839 20 12C20 11.3143 17.248 7 12 7ZM12 15.8456C10.036 15.8456 8.444 14.1241 8.444 12C8.444 9.87589 10.036 8.15268 12 8.15268C13.964 8.15268 15.5552 9.87589 15.5552 12C15.5552 14.1241 13.964 15.8456 12 15.8456ZM12 12C11.6744 11.6009 12.5304 10.0768 12 10.0768C11.0176 10.0768 10.2216 10.9384 10.2216 12C10.2216 13.0616 11.0176 13.9232 12 13.9232C12.9816 13.9232 13.7784 13.0616 13.7784 12C13.7784 11.5116 12.2768 12.3384 12 12Z" fill="black"/>
</svg>

<svg xmlns="http://www.w3.org/2000/svg" width="24" height="24" viewBox="0 0 24 24"><path d="M12 7c-5.249 0-8 4.314-8 5 0 .684 2.751 5 8 5 5.248 0 8-4.316 8-5 0-.686-2.752-5-8-5Zm0 8.846c-1.964 0-3.556-1.722-3.556-3.846S10.036 8.153 12 8.153 15.555 9.876 15.555 12c0 2.124-1.591 3.846-3.555 3.846ZM12 12c-.326-.399.53-1.923 0-1.923-.982 0-1.778.861-1.778 1.923s.796 1.923 1.778 1.923 1.778-.861 1.778-1.923c0-.488-1.501.338-1.778 0Z"/></svg>
